X:1
T:Title
%%score { ( 1 4 ) | ( 2 3 ) }
L:1/8
M:9/8
K:F
V:1 treble nm="Grand Piano"
V:4 treble 
V:2 bass 
V:3 bass 
V:1
 z3 z3[Q:1/4=104] A2 G | F3- F2 C EDC | C3 F3 F2 F | [EG]3- [EG]2 [EG] [EA]2 [EB] | %4
 [FA]6 [Ac]2 [Gc] | z3 z3 .c3 | c3 c3 [Ac]2 [_Ad] | e3- e2 c [D=B][Ec][Fd] | [Ec]6 z3 | [GB]6 z3 | %10
 [FA]3 [EG]3 C2 C | [Bd]6 z3 | [EG]6 [EG]2 [DFG] | [^CEA]3- [CEA]2 [CEB] [CEA]2 [A,EG] | %14
 z3 .F3 z3 | [DB]3- [DB]2 [DB] E2 G |[M:3/4] F6 |] %17
V:2
 z3 z3 [F,CF]2 [F,B,C] | z3 z3 .G,3 | [F,A,]3 [F,A,C]3 [F,A,C]2 [F,A,C] | %3
 [C,C]3- [C,C]2 [C,C] [C,C]2 [C,C] | [F,C]6 [F,C]2 [F,B,] | %5
 [F,A,]3- [F,A,]2 [F,A,] [C,B,]2 [C,B,C] | [F,A,C]3 [F,A,F]3 [F,C]2 [F,C] | %7
 [G,CG]3- [G,CG]2[K:bass] [G,E] [G,,G,]2 [G,,G,] | [C,G,]6 C2 C | C,2 C, C,2 [C,C] [C,C]2 [C,C] | %10
 [C,C]3 [C,C]3 z3 | [C,C]2 C, C,2 [C,C] [C,C]2 [C,C] | [C,C]6 [C,C]2 B,, | %13
 A,,3- A,,2 A,, A,,2 A,, | D,3 D,2 C, B,,2 [A,,^F,] | [G,,G,]3- [G,,G,]2 [G,,G,] [C,G,C]2 [C,B,C] | %16
[M:3/4] [F,A,C]6 |] %17
V:3
 x9 | [F,A,C]3- [F,A,C]2 [F,A,] [C,B,]-[C,F,B,][C,E,B,] | x9 | x9 | x9 | x9 | x9 | x5[K:bass] x4 | %8
 x9 | x9 | x9 | x9 | x9 | x9 | x9 | x9 |[M:3/4] x6 |] %17
V:4
 x9 | x9 | x9 | x9 | x9 | [Fc]3- [Fc]2 [Cc] EDc | x9 | x9 | x9 | C2 C C2 [GB] [FA][GB][FA] | x9 | %11
 z2 C C2 [Ac] [GB]2 [FA] | x9 | x9 | [A,DF]3 [A,D]2- [A,D^F] [G,DG]2 [DA] | x9 |[M:3/4] x6 |] %17

